tools/download-figma-icons/icons/outlined-medium/monkey-blind.svg

<svg width="24" height="24" viewBox="0 0 24 24" fill="none" xmlns="http://www.w3.org/2000/svg">
<path d="M19.38 4.07342C19.23 4.07342 19.08 4.10343 18.9375 4.11844C17.01 2.43783 14.5725 1.5 12 1.5C10.71 1.5 9.465 1.73258 8.2875 2.18274C7.1175 2.6254 6.03 3.27814 5.0625 4.11844C4.92 4.10343 4.77 4.07342 4.62 4.07342C2.0775 4.07342 0 6.14416 0 8.69507C0 9.25027 0.0975 9.79796 0.2925 10.3081C0.54 10.9759 0.9525 11.5761 1.4775 12.0563C1.4925 13.5568 1.8225 14.9823 2.4375 16.3328L1.5525 18.1109C1.3725 18.4786 1.5225 18.9287 1.89 19.1163C2.0025 19.1688 2.115 19.1913 2.2275 19.1913C2.4975 19.1913 2.7675 19.0413 2.895 18.7712L3.93 16.6929C3.93 16.6929 3.93 16.6704 3.9375 16.6629C3.9675 16.5954 3.9825 16.5279 3.99 16.4528C3.9975 16.4303 3.9975 16.4078 3.9975 16.3853C4.005 16.3103 3.99 16.2428 3.975 16.1677C3.9675 16.1452 3.96 16.1227 3.9525 16.1002C3.945 16.0777 3.945 16.0477 3.93 16.0252C3.3 14.7647 2.9775 13.4143 2.9775 11.9962C2.97 11.4561 3.06 11.0734 3.1425 10.8108C3.4125 11.0884 3.69 11.6361 3.825 12.1313C3.9 12.4164 4.14 12.6265 4.4325 12.6715C4.725 12.7165 5.0175 12.589 5.175 12.3414C6.4125 10.4207 7.98 9.59539 8.775 9.9105C9.3675 10.1431 9.585 11.1184 9.3375 12.4464C8.64 16.2503 5.5275 16.948 5.4 16.9705C5.1075 17.023 4.875 17.2481 4.815 17.5407L4.0725 20.8569C3.9825 21.2546 4.2375 21.6597 4.6425 21.7497C4.7025 21.7497 4.755 21.7647 4.8075 21.7647C5.1525 21.7647 5.46 21.5322 5.5425 21.1795L5.7075 20.4143C7.35 21.7497 9.5625 22.5 12 22.5C13.215 22.5 14.385 22.3124 15.4425 21.9523C16.5075 21.5997 17.475 21.0745 18.2925 20.4143L18.4575 21.1795C18.54 21.5322 18.8475 21.7647 19.1925 21.7647C19.245 21.7647 19.2975 21.7647 19.3575 21.7497C19.7625 21.6597 20.0175 21.2546 19.9275 20.8569L19.185 17.5407C19.125 17.2556 18.8925 17.0305 18.6075 16.9705C18.4725 16.9405 15.36 16.2428 14.6625 12.4464C14.415 11.1109 14.6325 10.1431 15.225 9.9105C16.0275 9.59539 17.5875 10.4207 18.825 12.3414C18.9825 12.589 19.2825 12.724 19.5675 12.6715C19.86 12.6265 20.1 12.4164 20.175 12.1313C20.31 11.6361 20.5875 11.0884 20.8575 10.8108C20.94 11.0734 21.03 11.4561 21.0225 11.9962C21.0225 13.4143 20.7 14.7647 20.07 16.0252C20.055 16.0477 20.055 16.0777 20.0475 16.1002C20.04 16.1227 20.0325 16.1452 20.025 16.1677C20.01 16.2428 19.995 16.3103 20.0025 16.3853C20.0025 16.4078 20.0025 16.4303 20.01 16.4528C20.0175 16.5204 20.0325 16.5954 20.0625 16.6629C20.07 16.6629 20.07 16.6854 20.07 16.6929L21.105 18.7712C21.2325 19.0413 21.5025 19.1913 21.7725 19.1913C21.885 19.1913 21.9975 19.1688 22.11 19.1163C22.4775 18.9287 22.6275 18.4786 22.4475 18.1109L21.5625 16.3328C22.1775 14.9823 22.5075 13.5568 22.5225 12.0563C23.0475 11.5686 23.46 10.9684 23.7075 10.3081C23.9025 9.79046 24 9.24277 24 8.69507C24 6.15166 21.9225 4.08092 19.38 4.08092V4.07342ZM14.6775 8.52251C14.04 8.7701 12.63 9.68542 13.185 12.724C13.8975 16.6104 16.68 17.9234 17.82 18.306L17.9175 18.7412C16.5225 20.1892 14.4 21.0145 12 21.0145C10.8 21.0145 9.6675 20.8044 8.6625 20.4143C7.6575 20.0241 6.78 19.4539 6.0825 18.7412L6.18 18.306C7.32 17.9234 10.1025 16.6104 10.815 12.724C11.37 9.68542 9.96 8.7701 9.3225 8.52251C8.5725 8.2224 7.7175 8.31994 6.8625 8.73258C7.095 8.34244 7.485 7.9523 8.1375 7.68971C10.1325 6.88692 11.2425 8.4925 11.37 8.68006C11.37 8.68006 11.3775 8.68006 11.3775 8.69507C11.4 8.71758 11.4225 8.73258 11.4375 8.75509C11.49 8.81511 11.535 8.86763 11.595 8.90514H11.6025C11.6025 8.90514 11.625 8.92015 11.64 8.92765C11.7075 8.96517 11.7825 8.99518 11.865 9.01018C11.895 9.01018 11.9175 9.01018 11.9475 9.01018C12.015 9.01018 12.0825 9.01018 12.15 9.01018C12.18 9.01018 12.21 8.98767 12.2475 8.97267C12.3 8.95766 12.3525 8.94266 12.3975 8.91265C12.405 8.91265 12.405 8.91265 12.4125 8.89764C12.4425 8.87513 12.465 8.84512 12.495 8.82262C12.54 8.7776 12.5925 8.74009 12.6225 8.69507C12.6225 8.69507 12.63 8.69507 12.63 8.68006C12.75 8.4925 13.86 6.89443 15.8625 7.68971C16.515 7.9523 16.905 8.34244 17.1375 8.73258C16.2825 8.31994 15.4275 8.2224 14.6775 8.52251ZM22.305 9.79046C22.2675 9.888 22.215 9.98553 22.17 10.0831C21.9825 9.64791 21.78 9.42283 21.735 9.37781C21.6075 9.24277 21.4275 9.16024 21.2325 9.15273C20.295 9.09271 19.68 9.78296 19.2825 10.4507C19.1775 10.3307 19.0725 10.2331 18.9675 10.1206C19.0275 9.10021 18.57 7.17203 16.425 6.30922C14.4525 5.51393 12.9 6.27921 12 7.12701C11.1 6.27921 9.5475 5.52144 7.575 6.30922C5.43 7.17203 4.9725 9.10021 5.0325 10.1206C4.9275 10.2331 4.8225 10.3307 4.7175 10.4507C4.32 9.78296 3.69 9.10021 2.7675 9.15273C2.5725 9.15273 2.3925 9.24277 2.265 9.37781C2.22 9.42283 2.0175 9.64791 1.83 10.0831C1.785 9.98553 1.7325 9.888 1.695 9.79046C1.5675 9.43784 1.5 9.0702 1.5 8.69507C1.5 6.97696 2.9025 5.57396 4.62 5.57396C4.8075 5.57396 4.995 5.59646 5.1825 5.62647V5.61147C5.2275 5.61147 5.2725 5.64148 5.3175 5.64148C5.4975 5.64148 5.685 5.57396 5.8275 5.43891C7.5075 3.87085 9.6975 3.00054 12 3.00054C13.155 3.00054 14.2725 3.21811 15.3225 3.63076C16.365 4.04341 17.3325 4.65863 18.1725 5.43891C18.315 5.57396 18.5025 5.64148 18.6825 5.64148C18.7275 5.64148 18.7725 5.61897 18.8175 5.61147V5.62647C19.005 5.59646 19.1925 5.57396 19.38 5.57396C21.0975 5.57396 22.5 6.97696 22.5 8.69507C22.5 9.0702 22.4325 9.43784 22.305 9.79046Z" fill="black"/>
<path d="M12 19.7316C9.73496 19.7316 9.78746 17.4058 9.78746 17.4058H14.2125C14.2125 17.4058 14.265 19.7316 12 19.7316Z" fill="black"/>
<path d="M12.375 15.2373H11.625C11.2125 15.2373 10.875 15.5748 10.875 15.9873C10.875 16.3998 11.2125 16.7373 11.625 16.7373H12.375C12.7875 16.7373 13.125 16.3998 13.125 15.9873C13.125 15.5748 12.7875 15.2373 12.375 15.2373Z" fill="black"/>
</svg>

<svg xmlns="http://www.w3.org/2000/svg" width="24" height="24" fill="none" viewBox="0 0 24 24"><path fill="currentColor" d="M19.38 4.073c-.15 0-.3.03-.442.045A10.52 10.52 0 0 0 12 1.5c-1.29 0-2.535.233-3.713.683a10.7 10.7 0 0 0-3.225 1.935c-.142-.015-.292-.045-.442-.045A4.63 4.63 0 0 0 0 8.695c0 .555.098 1.103.293 1.613.247.668.66 1.268 1.185 1.748.014 1.5.345 2.926.96 4.277l-.886 1.778a.76.76 0 0 0 .338 1.005.8.8 0 0 0 .338.075c.27 0 .54-.15.667-.42l1.035-2.078s0-.023.007-.03a.7.7 0 0 0 .053-.21q.009-.034.007-.068c.008-.075-.007-.142-.022-.217l-.022-.068c-.008-.022-.008-.052-.023-.075a8.9 8.9 0 0 1-.953-4.029c-.007-.54.083-.923.166-1.185.27.277.547.825.682 1.32a.74.74 0 0 0 .607.54.74.74 0 0 0 .743-.33c1.237-1.92 2.805-2.746 3.6-2.43.592.232.81 1.207.563 2.535-.698 3.804-3.81 4.502-3.938 4.525a.73.73 0 0 0-.585.57l-.743 3.316a.75.75 0 0 0 .57.893c.06 0 .113.015.165.015a.75.75 0 0 0 .736-.585l.164-.766C7.35 21.75 9.564 22.5 12 22.5c1.215 0 2.385-.188 3.443-.548a9.1 9.1 0 0 0 2.85-1.538l.165.765c.082.353.39.586.735.586.052 0 .104 0 .165-.015a.75.75 0 0 0 .57-.893l-.743-3.316a.75.75 0 0 0-.577-.57c-.136-.03-3.248-.728-3.946-4.525-.247-1.335-.03-2.303.563-2.535.803-.316 2.362.51 3.6 2.43a.74.74 0 0 0 .742.33.74.74 0 0 0 .608-.54c.135-.495.412-1.043.683-1.32.082.262.172.645.165 1.185a8.9 8.9 0 0 1-.953 4.03c-.015.022-.015.052-.023.074l-.022.068c-.015.075-.03.142-.022.217q-.002.034.007.068a.7.7 0 0 0 .052.21c.008 0 .008.022.008.03l1.035 2.078a.74.74 0 0 0 .668.42.8.8 0 0 0 .337-.075.76.76 0 0 0 .338-1.005l-.886-1.778c.615-1.35.945-2.776.96-4.277a4.6 4.6 0 0 0 1.186-1.748A4.6 4.6 0 0 0 24 8.695a4.626 4.626 0 0 0-4.62-4.614zm-4.702 4.45c-.638.247-2.048 1.162-1.493 4.201.713 3.886 3.495 5.2 4.635 5.582l.098.435C16.523 20.19 14.4 21.015 12 21.015a9.2 9.2 0 0 1-3.338-.6 7.3 7.3 0 0 1-2.58-1.674l.098-.435c1.14-.383 3.922-1.696 4.635-5.582.555-3.039-.855-3.954-1.492-4.201-.75-.3-1.606-.203-2.46.21.232-.39.622-.78 1.274-1.043 1.995-.803 3.105.802 3.233.99 0 0 .008 0 .008.015.022.023.044.038.06.06.052.06.097.113.157.15h.007l.038.023a.7.7 0 0 0 .225.082h.285c.03 0 .06-.022.098-.037a.5.5 0 0 0 .15-.06c.007 0 .007 0 .014-.015.03-.023.053-.053.083-.075.045-.045.098-.083.128-.128 0 0 .007 0 .007-.015.12-.187 1.23-1.786 3.233-.99.652.262 1.042.652 1.274 1.043-.855-.413-1.71-.51-2.46-.21m7.627 1.267c-.038.098-.09.196-.135.293-.187-.435-.39-.66-.435-.705a.73.73 0 0 0-.502-.225c-.938-.06-1.553.63-1.95 1.298-.106-.12-.21-.218-.316-.33.06-1.02-.397-2.949-2.542-3.812-1.973-.795-3.525-.03-4.425.818-.9-.848-2.453-1.606-4.425-.818-2.145.863-2.602 2.791-2.543 3.812-.104.112-.21.21-.314.33-.398-.668-1.028-1.35-1.95-1.298a.7.7 0 0 0-.503.225c-.045.045-.248.27-.435.705-.045-.097-.098-.195-.135-.293A3.128 3.128 0 0 1 4.62 5.574c.188 0 .375.022.563.052v-.015c.045 0 .09.03.135.03.18 0 .367-.067.51-.202a9.05 9.05 0 0 1 9.495-1.808 9.1 9.1 0 0 1 2.85 1.808c.142.135.33.202.51.202.044 0 .09-.022.134-.03v.015c.188-.03.375-.052.563-.052a3.128 3.128 0 0 1 2.925 4.216"/><path fill="currentColor" d="M12 19.732c-2.265 0-2.213-2.326-2.213-2.326h4.426s.052 2.326-2.213 2.326m.375-4.495h-.75a.75.75 0 0 0-.75.75c0 .413.338.75.75.75h.75c.412 0 .75-.337.75-.75a.75.75 0 0 0-.75-.75"/></svg>
